public/gui/images/star-tooltip/star-create-tooltip.svg

<svg width="349" height="137" viewBox="0 0 349 137" fill="none" xmlns="http://www.w3.org/2000/svg">
<path opacity="0.3" d="M10.9004 91.1299C13.1095 91.1299 14.9004 89.339 14.9004 87.1299C14.9004 84.9207 13.1095 83.1299 10.9004 83.1299C8.69125 83.1299 6.90039 84.9207 6.90039 87.1299C6.90039 89.339 8.69125 91.1299 10.9004 91.1299Z" fill="#47A8D1"/>
<path opacity="0.53" d="M10.9004 90.1299C12.5572 90.1299 13.9004 88.7867 13.9004 87.1299C13.9004 85.473 12.5572 84.1299 10.9004 84.1299C9.24354 84.1299 7.90039 85.473 7.90039 87.1299C7.90039 88.7867 9.24354 90.1299 10.9004 90.1299Z" fill="#47A8D1"/>
<path opacity="0.77" d="M10.9004 89.1299C12.005 89.1299 12.9004 88.2345 12.9004 87.1299C12.9004 86.0253 12.005 85.1299 10.9004 85.1299C9.79582 85.1299 8.90039 86.0253 8.90039 87.1299C8.90039 88.2345 9.79582 89.1299 10.9004 89.1299Z" fill="#47A8D1"/>
<path d="M10.9004 88.1299C11.4527 88.1299 11.9004 87.6822 11.9004 87.1299C11.9004 86.5776 11.4527 86.1299 10.9004 86.1299C10.3481 86.1299 9.90039 86.5776 9.90039 87.1299C9.90039 87.6822 10.3481 88.1299 10.9004 88.1299Z" fill="#47A8D1"/>
<path d="M109.39 132.88C73.6503 132.88 44.5703 103.81 44.5703 68.0698C44.5703 32.3298 73.6503 3.25977 109.39 3.25977C128 3.25977 145.74 11.2998 158.07 25.3298C159.17 26.5798 160.79 27.2998 162.51 27.2998H300.49C303.5 17.8898 312.33 11.2998 322.4 11.2998C322.75 11.2998 323.1 11.3098 323.44 11.3198C335.22 11.8698 344.83 21.4798 345.38 33.1998C345.87 43.6298 339.15 53.0798 329.4 56.1998V89.8298C329.4 100.31 320.88 108.83 310.4 108.83H162.51C160.79 108.83 159.17 109.55 158.07 110.8C145.74 124.83 128 132.87 109.39 132.87V132.88Z" fill="#47A8D1"/>
<path d="M326.04 52.9498C325.68 53.0198 325.4 53.4098 325.4 53.8398V89.8398C325.4 98.1098 318.68 104.84 310.4 104.84H162.51C159.67 104.84 156.94 106.03 155.07 108.17C143.92 120.86 127.57 128.88 109.39 128.88C75.8503 128.88 48.5703 101.6 48.5703 68.0698C48.5703 34.5398 75.8503 7.25977 109.39 7.25977C127.57 7.25977 143.91 15.2798 155.07 27.9698C156.95 30.0998 159.67 31.2998 162.51 31.2998H302.86C303.29 31.2998 303.69 31.0198 303.75 30.6598C305.49 21.7598 313.33 15.2998 322.4 15.2998C322.71 15.2998 323.01 15.3098 323.31 15.3198C332.99 15.7698 340.93 23.7098 341.38 33.3898C341.82 42.7498 335.23 51.1598 326.04 52.9498Z" fill="#2D8CB4"/>
<path d="M10.9008 95.1503C15.3301 95.1503 18.9208 91.5596 18.9208 87.1303C18.9208 82.701 15.3301 79.1104 10.9008 79.1104C6.47149 79.1104 2.88086 82.701 2.88086 87.1303C2.88086 91.5596 6.47149 95.1503 10.9008 95.1503Z" stroke="#47A8D1" stroke-miterlimit="10"/>
<path d="M10.9 97.0305C16.3676 97.0305 20.8 92.5981 20.8 87.1304C20.8 81.6628 16.3676 77.2305 10.9 77.2305C5.43234 77.2305 1 81.6628 1 87.1304C1 92.5981 5.43234 97.0305 10.9 97.0305Z" stroke="#47A8D1" stroke-miterlimit="10"/>
<path d="M17.9004 80.1196L26.9904 71.0296C28.8704 69.1496 31.4104 68.0996 34.0604 68.0996H41.5704" stroke="#47A8D1" stroke-miterlimit="10"/>
<path d="M109.38 125.91C141.308 125.91 167.19 100.028 167.19 68.1001C167.19 36.1725 141.308 10.29 109.38 10.29C77.4527 10.29 51.5703 36.1725 51.5703 68.1001C51.5703 100.028 77.4527 125.91 109.38 125.91Z" stroke="#47A8D1" stroke-width="0.25" stroke-miterlimit="10"/>
<path d="M109.381 122.01C139.154 122.01 163.291 97.8741 163.291 68.1005C163.291 38.3268 139.154 14.1904 109.381 14.1904C79.607 14.1904 55.4707 38.3268 55.4707 68.1005C55.4707 97.8741 79.607 122.01 109.381 122.01Z" stroke="#47A8D1" stroke-width="1.12" stroke-miterlimit="10"/>
<path d="M109.38 120.05C138.071 120.05 161.33 96.7916 161.33 68.1004C161.33 39.4092 138.071 16.1504 109.38 16.1504C80.6884 16.1504 57.4297 39.4092 57.4297 68.1004C57.4297 96.7916 80.6884 120.05 109.38 120.05Z" stroke="#47A8D1" stroke-width="1.56" stroke-miterlimit="10"/>
<path d="M109.381 118.1C136.995 118.1 159.381 95.7139 159.381 68.0996C159.381 40.4854 136.995 18.0996 109.381 18.0996C81.7666 18.0996 59.3809 40.4854 59.3809 68.0996C59.3809 95.7139 81.7666 118.1 109.381 118.1Z" fill="black" stroke="#47A8D1" stroke-width="2" stroke-miterlimit="10"/>
<path d="M338.381 33.57C338.001 25.43 331.301 18.74 323.161 18.35C315.051 17.97 308.171 23.67 306.691 31.27C306.341 33.07 304.691 34.33 302.851 34.33H175.211C168.251 34.33 163.481 41.25 165.841 47.8C168.131 54.14 169.371 60.98 169.371 68.1C169.371 75.22 168.121 82.06 165.841 88.4C163.481 94.95 168.251 101.87 175.211 101.87H310.391C316.991 101.87 322.391 96.47 322.391 89.87V53.87C322.391 52.03 323.651 50.38 325.451 50.03C333.051 48.55 338.751 41.67 338.371 33.56L338.381 33.57Z" fill="#47A8D1"/>
<path d="M322.4 48.3301C330.132 48.3301 336.4 42.0621 336.4 34.3301C336.4 26.5981 330.132 20.3301 322.4 20.3301C314.668 20.3301 308.4 26.5981 308.4 34.3301C308.4 42.0621 314.668 48.3301 322.4 48.3301Z" fill="black"/>
<path d="M315.33 41.4098L329.47 27.2598" stroke="#47A8D1" stroke-width="2" stroke-miterlimit="10"/>
<path d="M315.33 27.2598L329.47 41.4098" stroke="#47A8D1" stroke-width="2" stroke-miterlimit="10"/>
<path d="M109.391 0.259979C128.861 0.259979 147.431 8.67998 160.321 23.35C160.851 23.95 161.65 24.3 162.5 24.3H298.391C302.401 14.64 311.791 8.29999 322.391 8.29999C322.781 8.29999 323.151 8.30998 323.521 8.31998C336.851 8.93998 347.74 19.81 348.36 33.06C348.87 44.03 342.401 54.11 332.391 58.29V89.83C332.391 101.96 322.521 111.83 310.391 111.83H162.5C161.64 111.83 160.851 112.17 160.321 112.78C147.421 127.46 128.86 135.87 109.38 135.87C71.9805 135.87 41.5605 105.45 41.5605 68.06C41.5605 30.67 71.9805 0.25 109.38 0.25M109.38 0C71.8505 0 41.3105 30.53 41.3105 68.06C41.3105 105.59 71.8505 136.12 109.38 136.12C128.92 136.12 147.56 127.67 160.5 112.94C160.98 112.39 161.71 112.08 162.49 112.08H310.38C322.65 112.08 332.63 102.1 332.63 89.83V58.45C342.7 54.16 349.121 43.97 348.601 33.04C347.981 19.66 336.961 8.69 323.521 8.06C323.141 8.05 322.76 8.03998 322.37 8.03998C311.78 8.03998 302.311 14.31 298.201 24.04H162.48C161.69 24.04 160.97 23.73 160.48 23.18C147.53 8.44999 128.9 0 109.36 0H109.38Z" fill="#47A8D1"/>
<path d="M109.38 123.96C140.23 123.96 165.24 98.9509 165.24 68.1003C165.24 37.2496 140.23 12.2402 109.38 12.2402C78.5289 12.2402 53.5195 37.2496 53.5195 68.1003C53.5195 98.9509 78.5289 123.96 109.38 123.96Z" stroke="#47A8D1" stroke-width="0.69" stroke-miterlimit="10"/>
</svg>

<?xml version="1.0" encoding="utf-8"?>
<!-- Generator: Adobe Illustrator 23.0.3, SVG Export Plug-In . SVG Version: 6.00 Build 0)  -->
<svg version="1.1" id="Слой_1" xmlns="http://www.w3.org/2000/svg" xmlns:xlink="http://www.w3.org/1999/xlink" x="0px" y="0px"
	 viewBox="0 0 349 137" style="enable-background:new 0 0 349 137;" xml:space="preserve">
<style type="text/css">
	.st0{fill:#47A8D1;}
	.st1{fill:#2D8CB4;}
	.st2{stroke:#47A8D1;stroke-width:2;stroke-miterlimit:10;}
	.st3{fill:none;stroke:#47A8D1;stroke-width:1.56;stroke-miterlimit:10;}
	.st4{fill:none;stroke:#47A8D1;stroke-width:1.12;stroke-miterlimit:10;}
	.st5{fill:none;stroke:#47A8D1;stroke-width:0.69;stroke-miterlimit:10;}
	.st6{fill:none;stroke:#47A8D1;stroke-width:0.25;stroke-miterlimit:10;}
	.st7{fill:none;stroke:#47A8D1;stroke-width:2;stroke-miterlimit:10;}
	.st8{fill:none;stroke:#47A8D1;stroke-miterlimit:10;}
	.st9{opacity:0.3;fill:#47A8D1;enable-background:new    ;}
	.st10{opacity:0.53;fill:#47A8D1;enable-background:new    ;}
	.st11{opacity:0.77;fill:#47A8D1;enable-background:new    ;}
</style>
<g id="shape">
	<path id="bg" class="st0" d="M109.4,132.9c-35.7,0-64.8-29.1-64.8-64.8c0-35.7,29.1-64.8,64.8-64.8c18.6,0,36.4,8,48.7,22.1
		c1.1,1.3,2.7,2,4.4,2h138c3-9.4,11.8-16,21.9-16c0.4,0,0.7,0,1,0c11.8,0.5,21.4,10.2,21.9,21.9c0.5,10.4-6.2,19.9-16,23v33.6
		c0,10.5-8.5,19-19,19H162.5c-1.7,0-3.3,0.7-4.4,2C145.7,124.8,128,132.9,109.4,132.9L109.4,132.9z"/>
	<path id="innerline" class="st1" d="M326,52.9c-0.4,0.1-0.6,0.5-0.6,0.9v36c0,8.3-6.7,15-15,15H162.5c-2.8,0-5.6,1.2-7.4,3.3
		c-11.2,12.7-27.5,20.7-45.7,20.7c-33.5,0-60.8-27.3-60.8-60.8c0-33.5,27.3-60.8,60.8-60.8c18.2,0,34.5,8,45.7,20.7
		c1.9,2.1,4.6,3.3,7.4,3.3h140.3c0.4,0,0.8-0.3,0.9-0.6c1.7-8.9,9.6-15.4,18.6-15.4c0.3,0,0.6,0,0.9,0c9.7,0.4,17.6,8.4,18.1,18.1
		C341.8,42.7,335.2,51.2,326,52.9z"/>
	<path id="content-bg" class="st0" d="M338.4,33.6c-0.4-8.1-7.1-14.8-15.2-15.2c-8.1-0.4-15,5.3-16.5,12.9c-0.4,1.8-2,3.1-3.8,3.1
		H175.2c-7,0-11.7,6.9-9.4,13.5c2.3,6.3,3.5,13.2,3.5,20.3s-1.3,14-3.5,20.3c-2.4,6.5,2.4,13.5,9.4,13.5h135.2c6.6,0,12-5.4,12-12
		v-36c0-1.8,1.3-3.5,3.1-3.8C333.1,48.5,338.8,41.7,338.4,33.6L338.4,33.6z"/>
	<path id="outline" class="st0" d="M109.4,0.3c19.5,0,38,8.4,50.9,23.1c0.5,0.6,1.3,0.9,2.2,0.9h135.9c4-9.7,13.4-16,24-16
		c0.4,0,0.8,0,1.1,0c13.3,0.6,24.2,11.5,24.8,24.7c0.5,11-6,21-16,25.2v31.5c0,12.1-9.9,22-22,22H162.5c-0.9,0-1.6,0.3-2.2,0.9
		c-12.9,14.7-31.5,23.1-50.9,23.1c-37.4,0-67.8-30.4-67.8-67.8S72,0.2,109.4,0.3 M109.4,0C71.9,0,41.3,30.5,41.3,68.1
		s30.5,68.1,68.1,68.1c19.5,0,38.2-8.4,51.1-23.2c0.5-0.6,1.2-0.9,2-0.9h147.9c12.3,0,22.3-10,22.3-22.3V58.4
		c10.1-4.3,16.5-14.5,16-25.4C348,19.7,337,8.7,323.5,8.1c-0.4,0-0.8,0-1.2,0c-10.6,0-20.1,6.3-24.2,16H162.5c-0.8,0-1.5-0.3-2-0.9
		C147.5,8.4,128.9,0,109.4,0L109.4,0z"/>
	<g id="preview">
		<path id="preview-bg" class="st2" d="M109.4,118.1c27.6,0,50-22.4,50-50c0-27.6-22.4-50-50-50c-27.6,0-50,22.4-50,50
			C59.4,95.7,81.8,118.1,109.4,118.1z"/>
		<path id="preview-outline-4" class="st3" d="M109.4,120c28.7,0,52-23.3,52-51.9s-23.3-52-52-52c-28.7,0-52,23.3-52,52
			S80.7,120,109.4,120z"/>
		<path id="preview-outline-3_1_" class="st4" d="M109.4,122c29.8,0,53.9-24.1,53.9-53.9c0-29.8-24.1-53.9-53.9-53.9
			c-29.8,0-53.9,24.1-53.9,53.9C55.5,97.9,79.6,122,109.4,122z"/>
		<path id="preview-outline-2" class="st5" d="M109.4,124c30.8,0,55.9-25,55.9-55.9c0-30.9-25-55.9-55.9-55.9
			c-30.9,0-55.9,25-55.9,55.9C53.5,99,78.5,124,109.4,124z"/>
		<path id="preview-outline-1" class="st6" d="M109.4,125.9c31.9,0,57.8-25.9,57.8-57.8c0-31.9-25.9-57.8-57.8-57.8
			c-31.9,0-57.8,25.9-57.8,57.8C51.6,100,77.5,125.9,109.4,125.9z"/>
	</g>
	<g id="close-button">
		<path id="close-button-bg" d="M322.4,48.3c7.7,0,14-6.3,14-14s-6.3-14-14-14s-14,6.3-14,14S314.7,48.3,322.4,48.3z"/>
		<path id="close-button-line-2" class="st7" d="M315.3,41.4l14.1-14.2"/>
		<path id="close-button-line-1" class="st7" d="M315.3,27.3l14.1,14.2"/>
	</g>
</g>
<path id="connect-line" class="st8" d="M17.9,80.1L27,71c1.9-1.9,4.4-2.9,7.1-2.9h7.5"/>
<g id="dot">
	<path id="dot-shape-4" class="st9" d="M10.9,91.1c2.2,0,4-1.8,4-4c0-2.2-1.8-4-4-4c-2.2,0-4,1.8-4,4C6.9,89.3,8.7,91.1,10.9,91.1z"
		/>
	<path id="dot-shape-3" class="st10" d="M10.9,90.1c1.7,0,3-1.3,3-3c0-1.7-1.3-3-3-3c-1.7,0-3,1.3-3,3C7.9,88.8,9.2,90.1,10.9,90.1z
		"/>
	<path id="dot-shape-2" class="st11" d="M10.9,89.1c1.1,0,2-0.9,2-2s-0.9-2-2-2c-1.1,0-2,0.9-2,2S9.8,89.1,10.9,89.1z"/>
	<path id="dot-shape-1" class="st0" d="M10.9,88.1c0.6,0,1-0.4,1-1s-0.4-1-1-1c-0.6,0-1,0.4-1,1S10.3,88.1,10.9,88.1z"/>
	<path id="dot-outline-2" class="st8" d="M10.9,95.2c4.4,0,8-3.6,8-8c0-4.4-3.6-8-8-8c-4.4,0-8,3.6-8,8C2.9,91.6,6.5,95.2,10.9,95.2
		z"/>
	<path id="dot-outline-1_1_" class="st8" d="M10.9,97c5.5,0,9.9-4.4,9.9-9.9c0-5.5-4.4-9.9-9.9-9.9c-5.5,0-9.9,4.4-9.9,9.9
		C1,92.6,5.4,97,10.9,97z"/>
</g>
</svg>
